assets/images/avatar/Avatar 13.svg

<svg fill="none" height="128" viewBox="0 0 128 128" width="128" xmlns="http://www.w3.org/2000/svg" xmlns:xlink="http://www.w3.org/1999/xlink"><mask id="a" height="116" maskUnits="userSpaceOnUse" width="112" x="8" y="6"><path clip-rule="evenodd" d="m69.3333 6.98351c15.5688 1.50082 29.5991 14.37029 39.1677 26.75469 9.376 12.1348 13.091 27.3707 10.432 42.4786-2.854 16.2131-10.398 32.0242-24.909 39.7742-15.1625 8.097-33.3749 6.853-49.0024-.303-16.0514-7.351-28.8254-20.5081-33.5903-37.521-5.07206-18.1097-4.17319-38.8729 8.2399-52.9919 11.9192-13.5573 31.7035-19.92279 49.6621-18.19159z" fill="#eff6f7" fill-rule="evenodd"/></mask><g mask="url(#a)"><path clip-rule="evenodd" d="m69.4499 12.1747c15.5688 1.5009 29.4825 9.1791 39.0511 21.5635 9.376 12.1347 13.091 27.3707 10.432 42.4786-2.854 16.2131-10.398 32.0242-24.909 39.7742-15.1625 8.097-33.3749 6.853-49.0024-.303-16.0514-7.351-28.8254-20.5081-33.5903-37.521-5.07206-18.1098-4.17319-38.8729 8.2399-52.9919 11.9192-13.5573 31.8201-14.7316 49.7787-13.0004z" fill="#eff6f7" fill-rule="evenodd"/><path d="m106.545 97.3393c-10.7767-8.3657-25.1675-9.9718-28.7942-17.4872-2.179-4.5197-.0518-11.9558-.0518-15.0096 0-11.5809-19.1207-14.1805-23.6007-4.1904-.5747 1.3216-.8644 2.7494-.8503 4.1904 0 3.0477 2.1333 10.4899-.0488 15.0096-3.6266 7.5154-18.0175 9.1215-28.7939 17.4872-6.8632 5.3277-11.2762 12.4127-12.3916 24.1977h106.9193c-1.106-11.785-5.525-18.87-12.388-24.1977z" fill="#cc86d9"/><path d="m79.686 82.5218c-3.2091 4.0716-9.6365 7.6586-14.214 7.6586h-.0854c-4.5562 0-10.9714-3.5626-14.1775-7.619.8124-.7829 1.4845-1.6993 1.9871-2.7093 2.179-4.5197.0487-11.9528.0487-15.0065-.0153-1.4412.2745-2.8693.8503-4.1905 4.4739-9.9901 23.6007-7.3722 23.6007 4.1905 0 3.0476-2.1333 10.4868.0488 15.0065.487.9959 1.144 1.8993 1.9413 2.6697z" fill="#e7baef"/><path d="m77.3516 78.8342c-1.149-3.5292-.3048-8.2865.128-11.581-3.773 0-9.3014.0732-11.968.0244-2.6667-.0488-8.1494.4389-11.9163.9143.4968 3.5627 1.1856 8.3718-.3961 11.6541-.4803.9678-1.1179 1.8494-1.8865 2.6088 5.1352 5.8575 18.3498 6.467 26.0389-3.6206z" fill="#353154" opacity=".15"/><path d="m118.936 121.531h-106.9071c1.1124-11.776 5.5253-18.864 12.3916-24.1917 6.0343-4.6872 13.2084-7.2564 18.9837-9.9291 3.1603-1.4568 5.9063-2.9593 7.8232-4.8549 3.2183 4.0503 9.6213 7.6191 14.1775 7.6191h.0853c4.5715 0 11.005-3.5871 14.2142-7.6587 1.8926 1.9047 4.6262 3.4072 7.7988 4.8762 5.7905 2.688 12.9948 5.2541 19.0538 9.9657 6.854 5.3124 11.267 12.4004 12.379 24.1734z" fill="#f2d6f6"/><g fill="#f9f3fa"><path d="m65.3958 90.1682c-1.5238 3.4195-3.5657 6.2751-5.9307 8.2621-2.4167 2.0477-5.5863 2.0477-8.6156-.2133-1.4111-1.0514-3.2914-2.9105-4.1905-4.4251-1.3158-2.1857-2.4708-4.4642-3.4559-6.8175-.4816-.8016 6.9729-5.5863 7.7287-4.7696 3.1238 4.1935 9.7707 7.9695 14.464 7.9634z"/><path d="m65.475 90.1682c1.5238 3.4195 3.5657 6.2751 5.9337 8.2621 2.4137 2.0477 5.5863 2.0477 8.6157-.2133 1.408-1.0514 3.2914-2.9105 4.1904-4.4251 1.3158-2.1857 2.4708-4.4642 3.456-6.8175.4785-.8016-6.9729-5.5863-7.7287-4.7696-3.1238 4.1935-9.7707 7.9695-14.4671 7.9634z"/><path d="m68.3855 121.534h-5.8179v-30.5063l2.9105-.8564 2.9074.8564z"/></g><path d="m80.5699 15.7789c-3.5231-5.4369-9.3684-7.36912-15.1284-7.48188-5.3912-.10362-10.7276 1.80418-14.3664 6.53108-.2377.3047-.4603.6095-.6705.9508-2.816 4.3429-1.152 11.4835 2.6514 13.2999h24.8625c3.8034-1.8073 5.4674-8.9479 2.6514-13.2999z" fill="#2e2035"/><path d="m90.4685 33.1656c-4.1325-12.7421-15.0156-15.5429-24.8898-15.3844h-.0915-.0914c-9.8742-.1585-20.7604 2.6423-24.8899 15.3844-4.3794 13.5101.6095 26.7429 11.8857 27.0446 3.6571.0975 11.7852 1.0148 12.8945 1.0087h.4023c1.1063 0 9.2373-.9142 12.8944-1.0087 11.2793-.3017 16.2652-13.5345 11.8857-27.0446z" fill="#2e2035"/><path d="m85.1718 54.0662c-.4114-5.5132-2.2552-4.736-4.5562-13.1414-1.6914-6.1745-6.8388-8.2286-10.2674-8.9295-3.1966-.6614-6.4948-.6614-9.6914 0-3.4286.6887-8.576 2.7429-10.2674 8.9295-2.301 8.4054-4.1448 7.6191-4.5715 13.1414-.3047 4.2514-.387 5.5497.4358 9.3988.253 1.1886 1.5604 6.0526 2.9593 8.0427 2.2735 3.2365 6.0769 4.7878 7.7439 6.5432 1.2526 1.3227 2.6941 2.5204 4.413 3.2214 2.649 1.0147 5.5795 1.0147 8.2285 0 1.7159-.701 3.1604-1.8987 4.413-3.2214 1.667-1.7554 5.4705-3.3067 7.744-6.5432 1.3958-1.9901 2.7063-6.8541 2.9593-8.0427.8289-3.8491.7619-5.1474.4571-9.3988z" fill="#e7baef"/><path d="m62.4823 39.3127c.9095-.4131 1.9082-.5912 2.9044-.5181.9978.036 1.9701.3255 2.8251.8411-.9556.1015-1.9186.1168-2.877.0457-.9598-.0392-1.9143-.1626-2.8525-.3687z" fill="#353154" opacity=".0196"/><path d="m47.6587 54.8982c-.3048-.9722-2.4381-6.0343-4.8031-4.0351-1.3775 1.1612-1.1306 4.6598.1433 7.7653 1.2739 3.1056 4.6445 5.6381 5.1992 5.8362s-.5394-9.5664-.5394-9.5664z" fill="#e7baef"/><path d="m83.0629 54.8982c.3047-.9722 2.4381-6.0343 4.803-4.0351 1.3775 1.1612 1.1307 4.6598-.1432 7.7653-1.2739 3.1056-4.6446 5.6381-5.1993 5.8362-.5546.1981.5395-9.5664.5395-9.5664z" fill="#e7baef"/><path d="m59.3889 42.662c2.0402-.8398 4.2603-1.147 6.4519-.893 1.1093.125 2.1333.3505 3.1939.445 1.0589.1574 2.1301.2176 3.2.1798-1.0362.3596-2.1517.3901-3.2336.4206-1.0819.0304-2.2003-.1158-3.2335-.1859-2.1251-.1106-4.2548-.0994-6.3787.0335z" fill="#353154" opacity=".0196"/></g></svg>

<svg width="128" height="128" viewBox="0 0 128 128" fill="none" xmlns="http://www.w3.org/2000/svg">
<mask id="mask0_457_1644" style="mask-type:alpha" maskUnits="userSpaceOnUse" x="8" y="6" width="112" height="116">
<path fill-rule="evenodd" clip-rule="evenodd" d="M69.3333 6.98351C84.9021 8.48433 98.9324 21.3538 108.501 33.7382C117.877 45.873 121.592 61.1089 118.933 76.2168C116.079 92.4299 108.535 108.241 94.024 115.991C78.8615 124.088 60.6491 122.844 45.0216 115.688C28.9702 108.337 16.1962 95.1799 11.4313 78.167C6.35924 60.0573 7.25811 39.2941 19.6712 25.1751C31.5904 11.6178 51.3747 5.25231 69.3333 6.98351Z" fill="#EFF6F7"/>
</mask>
<g mask="url(#mask0_457_1644)">
<path fill-rule="evenodd" clip-rule="evenodd" d="M69.4499 12.1747C85.0187 13.6756 98.9324 21.3538 108.501 33.7382C117.877 45.8729 121.592 61.1089 118.933 76.2168C116.079 92.4299 108.535 108.241 94.024 115.991C78.8615 124.088 60.6491 122.844 45.0216 115.688C28.9702 108.337 16.1962 95.1799 11.4313 78.167C6.35924 60.0572 7.25811 39.2941 19.6712 25.1751C31.5904 11.6178 51.4913 10.4435 69.4499 12.1747Z" fill="#EFF6F7"/>
<path d="M106.545 97.3393C95.7683 88.9736 81.3775 87.3675 77.7508 79.8521C75.5718 75.3324 77.699 67.8963 77.699 64.8425C77.699 53.2616 58.5783 50.662 54.0983 60.6521C53.5236 61.9737 53.2339 63.4015 53.248 64.8425C53.248 67.8902 55.3813 75.3324 53.1992 79.8521C49.5726 87.3675 35.1817 88.9736 24.4053 97.3393C17.5421 102.667 13.1291 109.752 12.0137 121.537H118.933C117.827 109.752 113.408 102.667 106.545 97.3393Z" fill="#CC86D9"/>
<path d="M79.686 82.5218C76.4769 86.5934 70.0495 90.1804 65.472 90.1804H65.3866C60.8304 90.1804 54.4152 86.6178 51.2091 82.5614C52.0215 81.7785 52.6936 80.8621 53.1962 79.8521C55.3752 75.3324 53.2449 67.8993 53.2449 64.8456C53.2296 63.4044 53.5194 61.9763 54.0952 60.6551C58.5691 50.665 77.6959 53.2829 77.6959 64.8456C77.6959 67.8932 75.5626 75.3324 77.7447 79.8521C78.2317 80.848 78.8887 81.7514 79.686 82.5218V82.5218Z" fill="#E7BAEF"/>
<g style="mix-blend-mode:multiply" opacity="0.15">
<path d="M77.3516 78.8342C76.2026 75.305 77.0468 70.5477 77.4796 67.2532C73.7066 67.2532 68.1782 67.3264 65.5116 67.2776C62.8449 67.2288 57.3622 67.7165 53.5953 68.1919C54.0921 71.7546 54.7809 76.5637 53.1992 79.846C52.7189 80.8138 52.0813 81.6954 51.3127 82.4548C56.4479 88.3123 69.6625 88.9218 77.3516 78.8342Z" fill="#353154"/>
</g>
<path d="M118.936 121.531H12.0289C13.1413 109.755 17.5542 102.667 24.4205 97.3393C30.4548 92.6521 37.6289 90.0829 43.4042 87.4102C46.5645 85.9534 49.3105 84.4509 51.2274 82.5553C54.4457 86.6056 60.8487 90.1744 65.4049 90.1744H65.4902C70.0617 90.1744 76.4952 86.5873 79.7044 82.5157C81.597 84.4204 84.3306 85.9229 87.5032 87.3919C93.2937 90.0799 100.498 92.646 106.557 97.3576C113.411 102.67 117.824 109.758 118.936 121.531Z" fill="#F2D6F6"/>
<path d="M65.3958 90.1682C63.872 93.5877 61.8301 96.4433 59.4651 98.4303C57.0484 100.478 53.8788 100.478 50.8495 98.217C49.4384 97.1656 47.5581 95.3065 46.659 93.7919C45.3432 91.6062 44.1882 89.3277 43.2031 86.9744C42.7215 86.1728 50.176 81.3881 50.9318 82.2048C54.0556 86.3983 60.7025 90.1743 65.3958 90.1682Z" fill="#F9F3FA"/>
<path d="M65.475 90.1682C66.9988 93.5877 69.0407 96.4433 71.4087 98.4303C73.8224 100.478 76.995 100.478 80.0244 98.217C81.4324 97.1656 83.3158 95.3065 84.2148 93.7919C85.5306 91.6062 86.6856 89.3277 87.6708 86.9744C88.1493 86.1728 80.6979 81.3881 79.9421 82.2048C76.8183 86.3983 70.1714 90.1743 65.475 90.1682Z" fill="#F9F3FA"/>
<path d="M68.3855 121.534H62.5676V91.0277L65.4781 90.1713L68.3855 91.0277V121.534Z" fill="#F9F3FA"/>
<path d="M80.5699 15.7789C77.0468 10.342 71.2015 8.40978 65.4415 8.29702C60.0503 8.1934 54.7139 10.1012 51.0751 14.8281C50.8374 15.1328 50.6148 15.4376 50.4046 15.7789C47.5886 20.1218 49.2526 27.2624 53.056 29.0788H77.9185C81.7219 27.2715 83.3859 20.1309 80.5699 15.7789Z" fill="#2E2035"/>
<path d="M90.4685 33.1656C86.336 20.4235 75.4529 17.6227 65.5787 17.7812H65.4872H65.3958C55.5216 17.6227 44.6354 20.4235 40.5059 33.1656C36.1265 46.6757 41.1154 59.9085 52.3916 60.2102C56.0487 60.3077 64.1768 61.225 65.2861 61.2189H65.6884C66.7947 61.2189 74.9257 60.3047 78.5828 60.2102C89.8621 59.9085 94.848 46.6757 90.4685 33.1656Z" fill="#2E2035"/>
<path d="M85.1718 54.0662C84.7604 48.553 82.9166 49.3302 80.6156 40.9248C78.9242 34.7503 73.7768 32.6962 70.3482 31.9953C67.1516 31.3339 63.8534 31.3339 60.6568 31.9953C57.2282 32.684 52.0808 34.7382 50.3894 40.9248C48.0884 49.3302 46.2446 48.5439 45.8179 54.0662C45.5132 58.3176 45.4309 59.6159 46.2537 63.465C46.5067 64.6536 47.8141 69.5176 49.213 71.5077C51.4865 74.7442 55.2899 76.2955 56.9569 78.0509C58.2095 79.3736 59.651 80.5713 61.3699 81.2723C64.0189 82.287 66.9494 82.287 69.5984 81.2723C71.3143 80.5713 72.7588 79.3736 74.0114 78.0509C75.6784 76.2955 79.4819 74.7442 81.7554 71.5077C83.1512 69.5176 84.4617 64.6536 84.7147 63.465C85.5436 59.6159 85.4766 58.3176 85.1718 54.0662Z" fill="#E7BAEF"/>
<g style="mix-blend-mode:multiply" opacity="0.14">
<g style="mix-blend-mode:multiply" opacity="0.14">
<path d="M62.4823 39.3127C63.3918 38.8996 64.3905 38.7215 65.3867 38.7946C66.3845 38.8306 67.3568 39.1201 68.2118 39.6357C67.2562 39.7372 66.2932 39.7525 65.3348 39.6814C64.375 39.6422 63.4205 39.5188 62.4823 39.3127V39.3127Z" fill="#353154"/>
</g>
</g>
<path d="M47.6587 54.8982C47.3539 53.926 45.2206 48.8639 42.8556 50.8631C41.4781 52.0243 41.725 55.5229 42.9989 58.6284C44.2728 61.734 47.6434 64.2665 48.1981 64.4646C48.7528 64.6627 47.6587 54.8982 47.6587 54.8982Z" fill="#E7BAEF"/>
<path d="M83.0629 54.8982C83.3676 53.926 85.501 48.8639 87.8659 50.8631C89.2434 52.0243 88.9966 55.5229 87.7227 58.6284C86.4488 61.734 83.0781 64.2665 82.5234 64.4646C81.9688 64.6627 83.0629 54.8982 83.0629 54.8982Z" fill="#E7BAEF"/>
<g style="mix-blend-mode:multiply" opacity="0.14">
<g style="mix-blend-mode:multiply" opacity="0.14">
<path d="M59.3889 42.662C61.4291 41.8222 63.6492 41.515 65.8408 41.769C66.9501 41.894 67.9741 42.1195 69.0347 42.214C70.0936 42.3714 71.1648 42.4316 72.2347 42.3938C71.1985 42.7534 70.083 42.7839 69.0011 42.8144C67.9192 42.8448 66.8008 42.6986 65.7676 42.6285C63.6425 42.5179 61.5128 42.5291 59.3889 42.662V42.662Z" fill="#353154"/>
</g>
</g>
</g>
</svg>
